X:330
T:What Pain I've Endured Since Last Year
T:Gur mis 'tha gu craitach o'n'uiruidh
B:Fraser's Collection, (1815?)
N:Slow with expression
O:Scotland
Z:Nigel Gatherer
L:1/8
M:9/8
K:Em
g/f/|eBB B>AG F<DF|E2 F G>FG B2 g/f/|eBB B>AG F<DF|
E>Fd B>AF E2:|\
B|Bee Bgg fdd|Bee Bgg f2 A|
Bee Bgg f>ed|e>dB B>^A/B/^d/ e2 d/c/|Bee Bgg fdd|
Bee Bgg f2 A|Bef g>ag f>ed|e>dB B>^A/B/^d/ e2|]
<end>
<start>
